dist/svgs/unicons/line/chart-bar-alt.svg

<svg xmlns="http://www.w3.org/2000/svg" viewBox="0 0 24 24"><path d="M21 20H4v-2h3a1 1 0 000-2H4v-2h11a1 1 0 000-2H4v-2h7a1 1 0 000-2H4V6h15a1 1 0 000-2H4V3a1 1 0 00-2 0v18a1 1 0 001 1h18a1 1 0 000-2z"/></svg>

<svg xmlns="http://www.w3.org/2000/svg" viewBox="0 0 24 24"><path d="M21,20H4V18H7a1,1,0,0,0,0-2H4V14H15a1,1,0,0,0,0-2H4V10h7a1,1,0,0,0,0-2H4V6H19a1,1,0,0,0,0-2H4V3A1,1,0,0,0,2,3V21a1,1,0,0,0,1,1H21a1,1,0,0,0,0-2Z"/></svg>
